X:860
T:Square and Compass, The
R:Reel
B:The Athole Collection
M:C|
L:1/8
K:C
E|C2E2 cGEG|FDD^c dfed|cGEG cdec|Aagf ec ~cE|C2E2 cGEG|
FDdc dfed|cGEG c>dec|Aagf ecc||f|ecgc acge|fdad bdad|ecgc acgc|
fagf eccf|ecgc acge|fede fgac|AcBd cedf|eag>f ecc||

